X: 253
T: Battling Jerry
C: BB 7/07
N: 022245
M: 6/8
Q: 1/8=320
L: 1/8
R: jig
K: G
D|"G"GFG "D"ABA| "G"GFE "D"DAB | "C"cBc edc | "G"BcB "D"A2D|
"G"GFG "D"ABA| "G"Bdg "Am"ecA | "Em"BGE "D"DFA | "G"BGF "G"G2 :|
e|"G"ged "D"agf | "G"gab d2B | "C"cde "Am"a^ga | "D"fdd d2e |
"G"gfg "D"aba | "Em"gfe "G"d^cd | "C"efg "D7"a^ga | "G"bgg g2 :| 
%%%%%%%%%%%%%%%%%%
